X:1
T:Royal Aberdeenshire Highlanders', The
T:Royal Aberdeenshire Highlanders', The
T:Alexander Walker
C:Alexander Walker
L:1/8
M:4/4
K:C
V:1 treble 
V:1
 E>D | C2 G>A G2 E>F | G>E c>A G3 E | C2 G>c f>ed>c | d2 D2 D2 E>D | C2 G>A G2 E>F | G>E c>A G3 E | %7
 f>ag>f e>cd>B | c2 C2 C2 || e>d | c>eg>a g2 e>g | a>gc'>a g2 f>e | f>ag>e f>ed>c | e2 d2 d2 e>d | %14
 c>eg>a g2 e>g | a>gc'>a g2 f>e | f>ag>f e>cd>B | c2 C2 C2 e>d | c/d/e/g/ c'>a g2 g>e | %19
 c/d/e/g/ c'>a g2 g>e | g>gg>b c'>ag>e | a2 d2 d2 g>f | e>cd>B c3 B | A>Gc>E{E} D2 C>D | %24
 E>GF>A G>c d<f | e2 c2 c2 || %26

